X:34
T:lem the gower shepherd
R:rond
C:martin leamon of boys from the hill
N:21ST CENTURY SOUTH GOWER HORNPIPE
N:martin is a shepherd - from gower
Z:crm
M:4/4
L:1/8
Q:1/4=240
K:G
:~B2 BA GABD| BABA GABd| ~A2 AG FGAD| ADAG FGAD|
B2BA GABd| ~BDBA GABD|BAGB AGBA| BAGF EFGA :||
:BGEB GEBG| BGEB GEBG| AFDA FDAF| ~AFD{B}A FDAF|
BGEB GEBG| BGEB GEBG|FEFG AGFA|1 BAGF EGFG:||2 E4:||
